X:5312
T:Pàiris
O:england
C:Roberto Tombesi
M:2/4
L:1/16
K:C
e2A2 e2Ae |fedf e4|fedc Bcde |edcB A4|\
e2A2 e2Ae |fedf e4|c'bab c'2(3bc'b |1 a2z2 zf3:|2 a2z2 a4||
|:gagf efed cdcB (3ABA G2|B2G2 B2G2 cBcd e4|\
gagf efed cdcB (3ABA G2|B2G2 B2G2 cBcd c4:|


